src/assets/img/providers/evolution.svg

<svg width="112" height="22" viewBox="0 0 112 22" fill="none" xmlns="http://www.w3.org/2000/svg">
<g clip-path="url(#clip0_4052_7513)">
<path d="M0.861063 1.67971C1.47089 3.43971 2.29172 5.06198 3.32354 6.54666L5.12208 8.27966L6.43825 9.0592L8.3565 9.76971L10.7417 10.2056L12.2162 10.2907L15.2576 10.2173C15.3888 10.2148 15.4518 10.1466 15.4467 10.0128C15.3541 7.83335 14.6361 5.86738 13.293 4.1151C13.1875 3.95299 13.0949 3.84874 13.0151 3.80242C12.256 2.8478 11.3308 2.08359 10.2398 1.50979C7.15216 -0.00567102 4.04521 0.00593993 0.918958 1.54462C0.894632 1.55636 0.875373 1.5765 0.864732 1.60133C0.854092 1.62616 0.852789 1.654 0.861063 1.67971Z" fill="#919EAB"/>
<path d="M10.7572 11.0626C7.6077 11.2594 4.65509 12.6065 2.91439 15.289L0.895795 19.4806C0.834041 19.6041 0.866204 19.6967 0.992286 19.7585C4.09544 21.2637 7.73123 21.2792 10.6453 19.5076C13.4499 17.8042 15.071 15.0703 15.5084 11.3058C15.529 11.1412 15.4557 11.0588 15.2884 11.0588L10.7572 11.0626Z" fill="#919EAB"/>
<path d="M58.9488 2.09267H56.0077C55.9246 2.09267 55.8572 2.16006 55.8572 2.2432V19.326C55.8572 19.4091 55.9246 19.4765 56.0077 19.4765H58.9488C59.0319 19.4765 59.0993 19.4091 59.0993 19.326V2.2432C59.0993 2.16006 59.0319 2.09267 58.9488 2.09267Z" fill="#919EAB"/>
<path d="M21.9617 12.2087L21.9656 16.4891C21.9656 16.528 21.9811 16.5653 22.0086 16.5928C22.0361 16.6203 22.0734 16.6358 22.1123 16.6358L31.2481 16.6242C31.287 16.6242 31.3243 16.6396 31.3518 16.6671C31.3793 16.6946 31.3947 16.7319 31.3947 16.7708L31.4024 19.3298C31.4024 19.3687 31.387 19.406 31.3595 19.4335C31.332 19.461 31.2947 19.4765 31.2558 19.4765L18.8972 19.4726C18.8779 19.4726 18.8589 19.4688 18.8411 19.4614C18.8233 19.4541 18.8071 19.4433 18.7935 19.4296C18.7799 19.416 18.7691 19.3999 18.7617 19.3821C18.7543 19.3643 18.7505 19.3452 18.7505 19.3259L18.7544 2.45154C18.7544 2.41264 18.7698 2.37534 18.7973 2.34783C18.8248 2.32033 18.8621 2.30488 18.901 2.30488H30.9624C30.9817 2.30488 31.0008 2.30867 31.0186 2.31604C31.0364 2.32341 31.0525 2.33421 31.0662 2.34783C31.0798 2.36145 31.0906 2.37762 31.0979 2.39542C31.1053 2.41321 31.1091 2.43228 31.1091 2.45154L31.1207 5.00277C31.1207 5.02203 31.1169 5.0411 31.1095 5.0589C31.1022 5.07669 31.0914 5.09286 31.0777 5.10648C31.0641 5.1201 31.0479 5.1309 31.0302 5.13827C31.0124 5.14564 30.9933 5.14944 30.974 5.14944L22.1084 5.14172C22.0891 5.14172 22.0701 5.14551 22.0523 5.15288C22.0345 5.16025 22.0183 5.17106 22.0047 5.18468C21.9911 5.19829 21.9803 5.21446 21.9729 5.23226C21.9655 5.25005 21.9617 5.26912 21.9617 5.28838V9.04768C21.9617 9.08658 21.9772 9.12389 22.0047 9.15139C22.0322 9.1789 22.0695 9.19435 22.1084 9.19435L27.9288 9.19049C27.9677 9.19049 28.005 9.20594 28.0325 9.23345C28.06 9.26095 28.0754 9.29826 28.0754 9.33716L28.087 11.9193C28.087 11.9385 28.0832 11.9576 28.0758 11.9754C28.0685 11.9932 28.0577 12.0094 28.0441 12.023C28.0304 12.0366 28.0143 12.0474 27.9965 12.0548C27.9787 12.0621 27.9596 12.0659 27.9403 12.0659L22.1084 12.0621C22.0695 12.0621 22.0322 12.0775 22.0047 12.105C21.9772 12.1325 21.9617 12.1698 21.9617 12.2087Z" fill="#919EAB"/>
<path d="M81.8183 2.38868L84.8829 2.38333C84.9617 2.38319 85.0258 2.44702 85.0259 2.52589L85.0309 5.36659C85.031 5.44546 84.9672 5.50951 84.8883 5.50964L81.8238 5.51499C81.7449 5.51513 81.6809 5.4513 81.6807 5.37243L81.6758 2.53174C81.6756 2.45287 81.7394 2.38882 81.8183 2.38868Z" fill="#919EAB"/>
<path d="M78.0965 7.25299L80.1305 7.24527C80.1923 7.24527 80.2245 7.27743 80.227 7.34176L80.2733 9.74246C80.2759 9.80679 80.2438 9.83895 80.1768 9.83895L78.0772 9.85439C78.0427 9.8549 78.0087 9.86209 77.9771 9.87556C77.9454 9.88902 77.9168 9.9085 77.8928 9.93287C77.8687 9.95724 77.8498 9.98603 77.8371 10.0176C77.8244 10.0492 77.8181 10.0829 77.8186 10.1168C77.8392 12.0492 77.843 14.0125 77.8302 16.0067C77.8276 16.3926 78.0026 16.6216 78.3551 16.6937C78.8646 16.794 79.4358 16.8211 80.0688 16.7747C80.0796 16.7737 80.0904 16.7749 80.1007 16.7782C80.111 16.7816 80.1204 16.7871 80.1284 16.7944C80.1364 16.8017 80.1428 16.8106 80.1472 16.8205C80.1515 16.8304 80.1537 16.8411 80.1537 16.8519L80.146 19.3067C80.146 19.3916 80.1035 19.4379 80.0186 19.4456C77.8109 19.6116 74.8467 19.8084 74.7656 16.7284C74.709 14.6133 74.7116 12.4095 74.7733 10.1168C74.7744 10.0822 74.7685 10.0478 74.7562 10.0155C74.7439 9.98321 74.7253 9.95378 74.7015 9.92894C74.6778 9.9041 74.6493 9.88436 74.6179 9.87089C74.5865 9.85743 74.5527 9.8505 74.5186 9.85053L73.2874 9.84667C73.2516 9.84668 73.2161 9.83947 73.1831 9.82546C73.1501 9.81145 73.1201 9.79093 73.095 9.76507C73.0698 9.73921 73.05 9.70854 73.0367 9.67484C73.0233 9.64115 73.0167 9.60509 73.0172 9.56878L73.0481 7.49614C73.0507 7.32889 73.1356 7.24655 73.3028 7.24913L74.4491 7.25685C74.6678 7.25685 74.7746 7.14749 74.7695 6.92877L74.7193 5.32316C74.7157 5.22419 74.7393 5.12612 74.7877 5.03968C74.836 4.95323 74.9071 4.88173 74.9933 4.83298L77.5909 3.3393C77.8019 3.21837 77.9061 3.27884 77.9035 3.52071L77.8533 7.00597C77.8508 7.17065 77.9318 7.25299 78.0965 7.25299Z" fill="#919EAB"/>
<path fill-rule="evenodd" clip-rule="evenodd" d="M45.1654 18.9711C45.8902 19.3745 46.6867 19.6288 47.5094 19.7196C49.1709 19.9031 50.8383 19.4093 52.1448 18.3468C53.4513 17.2844 54.2898 15.7404 54.476 14.0545C54.5681 13.2197 54.4973 12.3752 54.2677 11.5692C54.038 10.7632 53.6539 10.0115 53.1373 9.35696C52.6207 8.70245 51.9818 8.15796 51.257 7.75459C50.5322 7.35122 49.7357 7.09686 48.913 7.00603C47.2515 6.8226 45.5841 7.31641 44.2776 8.37883C42.9711 9.44125 42.1326 10.9853 41.9465 12.6712C41.8543 13.506 41.9251 14.3505 42.1548 15.1565C42.3845 15.9625 42.7686 16.7142 43.2851 17.3687C43.8017 18.0232 44.4406 18.5677 45.1654 18.9711ZM49.3493 16.859C48.9774 17.0444 48.5799 17.1377 48.1795 17.1335C47.7791 17.1293 47.3836 17.0277 47.0157 16.8346C46.6478 16.6414 46.3146 16.3604 46.0351 16.0077C45.7556 15.6549 45.5354 15.2373 45.387 14.7787C45.2385 14.3201 45.1648 13.8294 45.17 13.3348C45.1751 12.8401 45.2591 12.3511 45.4171 11.8957C45.5752 11.4403 45.8041 11.0274 46.0909 10.6806C46.3777 10.3338 46.7167 10.0598 47.0886 9.87438C47.4605 9.68895 47.858 9.59567 48.2584 9.59987C48.6588 9.60406 49.0542 9.70564 49.4222 9.89882C49.7901 10.092 50.1233 10.373 50.4028 10.7257C50.6822 11.0785 50.9025 11.4961 51.0509 11.9547C51.1994 12.4133 51.2731 12.9039 51.2679 13.3986C51.2627 13.8933 51.1787 14.3823 51.0207 14.8377C50.8627 15.2931 50.6338 15.706 50.347 16.0528C50.0602 16.3996 49.7212 16.6736 49.3493 16.859Z" fill="#919EAB"/>
<path fill-rule="evenodd" clip-rule="evenodd" d="M91.8366 19.7121C90.1771 19.5113 88.6665 18.6498 87.6371 17.3171C86.6078 15.9844 86.144 14.2897 86.3478 12.6058C86.4487 11.772 86.7104 10.966 87.1181 10.2337C87.5257 9.50147 88.0713 8.85732 88.7237 8.33806C89.3761 7.8188 90.1225 7.4346 90.9202 7.2074C91.718 6.98019 92.5515 6.91443 93.3732 7.01386C95.0327 7.21469 96.5433 8.07621 97.5727 9.4089C98.602 10.7416 99.0658 12.4363 98.8621 14.1202C98.7612 14.954 98.4994 15.76 98.0917 16.4922C97.6841 17.2245 97.1385 17.8687 96.4861 18.3879C95.8337 18.9072 95.0873 19.2914 94.2896 19.5186C93.4918 19.7458 92.6583 19.8115 91.8366 19.7121ZM92.5732 17.1298C92.9731 17.134 93.3701 17.0408 93.7415 16.8556C94.113 16.6703 94.4516 16.3967 94.738 16.0502C95.0244 15.7038 95.2531 15.2913 95.4109 14.8363C95.5687 14.3814 95.6526 13.8929 95.6577 13.3987C95.6629 12.9046 95.5893 12.4144 95.441 11.9563C95.2928 11.4981 95.0728 11.081 94.7937 10.7286C94.5146 10.3762 94.1818 10.0955 93.8143 9.90252C93.4469 9.70955 93.0519 9.60807 92.652 9.60388C92.2521 9.59969 91.8551 9.69288 91.4837 9.87811C91.1123 10.0634 90.7737 10.337 90.4873 10.6835C90.2008 11.0299 89.9722 11.4424 89.8144 11.8974C89.6566 12.3523 89.5727 12.8408 89.5675 13.335C89.5623 13.8291 89.636 14.3193 89.7842 14.7774C89.9325 15.2356 90.1524 15.6527 90.4315 16.0051C90.7106 16.3575 91.0434 16.6382 91.4109 16.8312C91.7784 17.0241 92.1733 17.1256 92.5732 17.1298Z" fill="#919EAB"/>
<path d="M107.519 7.04079C105.733 6.87354 104.419 7.49237 103.578 8.89728C103.444 9.12372 103.381 9.10571 103.389 8.84325C103.402 8.42126 103.435 7.9967 103.489 7.56956C103.494 7.52925 103.49 7.48834 103.478 7.44957C103.466 7.4108 103.446 7.37507 103.419 7.34475C103.392 7.31443 103.359 7.29022 103.321 7.27375C103.284 7.25727 103.244 7.24891 103.203 7.24921H100.598C100.362 7.24921 100.243 7.36757 100.243 7.6043L100.239 19.3145C100.239 19.3358 100.243 19.3568 100.252 19.3765C100.26 19.3962 100.272 19.414 100.287 19.4291C100.302 19.4442 100.32 19.4561 100.339 19.4642C100.359 19.4724 100.38 19.4766 100.401 19.4766L103.288 19.4727C103.336 19.4727 103.381 19.454 103.414 19.4207C103.447 19.3874 103.466 19.3423 103.466 19.2952C103.443 17.283 103.439 15.1937 103.454 13.0271C103.466 11.298 104.226 9.55342 106.28 9.78886C107.411 9.92009 107.978 10.912 107.982 11.9696C107.995 14.414 107.993 16.8443 107.978 19.2604C107.978 19.3178 108 19.3727 108.04 19.4133C108.08 19.4538 108.134 19.4766 108.19 19.4766H110.985C111.113 19.4766 111.179 19.411 111.181 19.2797C111.187 16.7118 111.183 14.149 111.17 11.5913C111.158 9.31798 109.962 7.27237 107.519 7.04079Z" fill="#919EAB"/>
<path d="M39.3919 7.25691L42.3523 7.23762C42.3736 7.2375 42.3946 7.24256 42.4135 7.25237C42.4324 7.26217 42.4486 7.27643 42.4607 7.2939C42.4729 7.31138 42.4806 7.33155 42.4832 7.35267C42.4859 7.3738 42.4833 7.39524 42.4758 7.41516L38.1298 19.3801C38.1204 19.4051 38.1035 19.4267 38.0814 19.4419C38.0593 19.4571 38.0331 19.4651 38.0063 19.465L35.2351 19.4804C35.2083 19.4806 35.1821 19.4725 35.16 19.4573C35.1379 19.4422 35.121 19.4206 35.1116 19.3955L30.5302 7.41516C30.5227 7.39524 30.5201 7.3738 30.5227 7.35267C30.5254 7.33155 30.5331 7.31138 30.5452 7.2939C30.5574 7.27643 30.5736 7.26217 30.5925 7.25237C30.6114 7.24256 30.6324 7.2375 30.6537 7.23762L33.7144 7.26077C33.7417 7.26091 33.7682 7.26953 33.7903 7.28544C33.8125 7.30135 33.8291 7.32375 33.8379 7.34955L36.5281 15.4008C36.5367 15.4275 36.5537 15.4507 36.5766 15.4671C36.5994 15.4834 36.6269 15.492 36.6549 15.4916C36.683 15.4911 36.7102 15.4817 36.7325 15.4647C36.7549 15.4476 36.7711 15.4239 36.779 15.3969L39.2684 7.34955C39.2766 7.32303 39.2929 7.29979 39.3151 7.28315C39.3373 7.2665 39.3642 7.25732 39.3919 7.25691Z" fill="#919EAB"/>
<path d="M68.4898 18.1181C68.7188 17.8196 68.8089 17.8569 68.76 18.23L68.6442 19.1293C68.6159 19.3609 68.7188 19.4767 68.953 19.4767H71.6277C71.8052 19.4767 71.894 19.3866 71.894 19.2065V7.42298C71.894 7.30719 71.8361 7.2493 71.7203 7.2493H68.8179C68.7927 7.2493 68.7678 7.25423 68.7446 7.26378C68.7214 7.27334 68.7004 7.28733 68.6828 7.30495C68.6652 7.32256 68.6513 7.34344 68.642 7.36636C68.6328 7.38928 68.6282 7.41377 68.6287 7.43842C68.6776 10.4155 68.6648 12.7699 68.5901 14.5016C68.5323 15.8679 67.5673 17.0798 66.0389 16.937C64.5298 16.7981 64.0975 15.5553 64.1207 14.1967C64.1593 11.8629 64.1618 9.58182 64.1284 7.35351C64.1258 7.28404 64.0898 7.2493 64.0203 7.2493H61.0909C60.9854 7.2493 60.9313 7.30076 60.9287 7.40369C60.8953 10.3164 60.9043 12.9564 60.9558 15.3237C61.0445 19.3725 66.0042 21.364 68.4898 18.1181Z" fill="#919EAB"/>
<path d="M84.8161 7.2493H81.8519C81.773 7.2493 81.7091 7.31324 81.7091 7.39211V19.3339C81.7091 19.4127 81.773 19.4767 81.8519 19.4767H84.8161C84.895 19.4767 84.9589 19.4127 84.9589 19.3339V7.39211C84.9589 7.31324 84.895 7.2493 84.8161 7.2493Z" fill="#919EAB"/>
</g>
<defs>
<clipPath id="clip0_4052_7513">
<rect width="110.386" height="22" fill="white" transform="translate(0.807007 0.000976562)"/>
</clipPath>
</defs>
</svg>

<svg xmlns="http://www.w3.org/2000/svg" width="112" height="22" fill="none"><g fill="#919EAB" clip-path="url(#a)"><path d="M.861 1.68c.61 1.76 1.43 3.382 2.463 4.867L5.122 8.28l1.316.78 1.919.71 2.385.436 1.474.085 3.042-.074c.13-.002.194-.07.189-.204-.093-2.18-.81-4.146-2.154-5.898-.105-.162-.198-.266-.278-.313A8.648 8.648 0 0 0 10.24 1.51C7.152-.006 4.045.006.919 1.545a.112.112 0 0 0-.058.135ZM10.757 11.063c-3.15.196-6.102 1.543-7.843 4.226L.896 19.481c-.062.123-.03.216.096.277 3.103 1.506 6.74 1.521 9.653-.25 2.805-1.704 4.426-4.438 4.863-8.202.021-.165-.052-.247-.22-.247l-4.53.004ZM58.949 2.093h-2.941a.15.15 0 0 0-.15.15v17.083c0 .083.067.15.15.15h2.94a.15.15 0 0 0 .151-.15V2.243a.15.15 0 0 0-.15-.15ZM21.962 12.209l.004 4.28a.147.147 0 0 0 .146.147l9.136-.012a.147.147 0 0 1 .147.147l.007 2.559a.147.147 0 0 1-.146.147l-12.359-.004a.146.146 0 0 1-.135-.09.146.146 0 0 1-.012-.057l.004-16.874a.147.147 0 0 1 .147-.147h12.061a.147.147 0 0 1 .147.147l.012 2.55a.146.146 0 0 1-.147.147l-8.866-.007a.146.146 0 0 0-.146.146v3.76a.147.147 0 0 0 .146.146l5.82-.004a.147.147 0 0 1 .147.147l.012 2.582a.146.146 0 0 1-.147.147l-5.832-.004a.147.147 0 0 0-.146.147ZM81.818 2.389l3.065-.006c.079 0 .143.064.143.143l.005 2.84a.143.143 0 0 1-.143.144l-3.064.005a.143.143 0 0 1-.143-.143l-.005-2.84c0-.08.063-.143.142-.143ZM78.097 7.253l2.034-.008c.061 0 .094.032.096.097l.046 2.4c.003.065-.03.097-.096.097l-2.1.015a.265.265 0 0 0-.24.164.256.256 0 0 0-.018.099c.02 1.932.024 3.895.011 5.89-.002.386.173.615.525.687.51.1 1.08.127 1.714.08a.077.077 0 0 1 .085.077l-.008 2.456c0 .085-.043.13-.127.139-2.208.166-5.172.362-5.253-2.718-.057-2.115-.054-4.319.007-6.611a.261.261 0 0 0-.155-.246.252.252 0 0 0-.1-.02l-1.23-.004a.267.267 0 0 1-.251-.172.277.277 0 0 1-.02-.106l.031-2.073c.003-.167.088-.25.255-.247l1.146.008c.219 0 .326-.11.32-.328l-.05-1.606a.54.54 0 0 1 .274-.49l2.598-1.494c.21-.12.315-.06.313.182l-.05 3.485c-.003.165.078.247.243.247Z"/><path fill-rule="evenodd" d="M45.165 18.971a6.223 6.223 0 0 0 2.344.749 6.256 6.256 0 0 0 4.636-1.373 6.444 6.444 0 0 0 2.331-4.293 6.48 6.48 0 0 0-.208-2.485 6.403 6.403 0 0 0-1.13-2.212 6.298 6.298 0 0 0-1.881-1.602 6.224 6.224 0 0 0-2.344-.749 6.257 6.257 0 0 0-4.635 1.373 6.443 6.443 0 0 0-2.331 4.292 6.476 6.476 0 0 0 .208 2.486c.23.806.614 1.557 1.13 2.212a6.299 6.299 0 0 0 1.88 1.602Zm4.184-2.112c-.372.185-.77.279-1.17.274a2.555 2.555 0 0 1-1.163-.298 3.098 3.098 0 0 1-.98-.827c-.28-.353-.5-.77-.649-1.23a4.546 4.546 0 0 1-.217-1.443c.005-.495.09-.984.247-1.44.158-.455.387-.868.674-1.214.287-.347.626-.621.998-.807.372-.185.769-.278 1.17-.274.4.004.795.106 1.163.299s.701.474.98.827c.28.352.5.77.649 1.229.148.458.222.949.217 1.444-.005.494-.09.983-.247 1.439a3.922 3.922 0 0 1-.674 1.215c-.287.347-.626.62-.998.806ZM91.837 19.712a6.257 6.257 0 0 1-4.2-2.395 6.444 6.444 0 0 1-1.29-4.711c.102-.834.363-1.64.771-2.372a6.401 6.401 0 0 1 1.606-1.896 6.298 6.298 0 0 1 2.196-1.13 6.224 6.224 0 0 1 2.453-.194c1.66.2 3.17 1.062 4.2 2.395a6.444 6.444 0 0 1 1.29 4.711c-.102.834-.364 1.64-.771 2.372a6.4 6.4 0 0 1-1.606 1.896 6.297 6.297 0 0 1-2.196 1.13 6.224 6.224 0 0 1-2.453.194Zm.736-2.582c.4.004.797-.09 1.169-.274.371-.186.71-.46.996-.806.286-.346.515-.759.673-1.214.158-.455.242-.943.247-1.437a4.542 4.542 0 0 0-.217-1.443 3.918 3.918 0 0 0-.647-1.227 3.092 3.092 0 0 0-.98-.826 2.55 2.55 0 0 0-1.162-.3 2.55 2.55 0 0 0-1.168.275c-.372.185-.71.459-.997.806a3.916 3.916 0 0 0-.673 1.213 4.545 4.545 0 0 0-.246 1.438c-.006.494.068.984.216 1.442.148.459.368.876.647 1.228.28.353.612.633.98.826.367.193.762.295 1.162.299Z" clip-rule="evenodd"/><path d="M107.519 7.04c-1.786-.166-3.1.452-3.941 1.857-.134.227-.197.209-.189-.054.013-.422.046-.846.1-1.273a.287.287 0 0 0-.286-.32h-2.605c-.236 0-.355.118-.355.354l-.004 11.71c0 .022.004.043.013.063a.16.16 0 0 0 .149.1l2.887-.004a.177.177 0 0 0 .178-.178 341.873 341.873 0 0 1-.012-6.268c.012-1.729.772-3.474 2.826-3.238 1.131.131 1.698 1.123 1.702 2.18.013 2.445.011 4.875-.004 7.291 0 .058.022.113.062.153.04.04.094.064.15.064h2.795c.128 0 .194-.066.196-.197.006-2.568.002-5.131-.011-7.689-.012-2.273-1.208-4.319-3.651-4.55ZM39.392 7.257l2.96-.02a.131.131 0 0 1 .124.178L38.13 19.38a.131.131 0 0 1-.124.085l-2.77.015a.13.13 0 0 1-.124-.085L30.53 7.415a.132.132 0 0 1 .063-.163.131.131 0 0 1 .06-.014l3.061.023a.131.131 0 0 1 .124.089l2.69 8.05a.13.13 0 0 0 .251-.003l2.49-8.047a.131.131 0 0 1 .123-.093ZM68.49 18.118c.229-.298.319-.261.27.112l-.116.9c-.028.23.075.347.309.347h2.675c.177 0 .266-.09.266-.27V7.422c0-.116-.058-.174-.174-.174h-2.902a.193.193 0 0 0-.135.056.186.186 0 0 0-.054.133c.049 2.978.036 5.332-.039 7.064-.058 1.366-1.023 2.578-2.551 2.435-1.51-.139-1.942-1.382-1.918-2.74.038-2.334.04-4.615.007-6.843-.002-.07-.038-.105-.108-.105h-2.93c-.105 0-.159.052-.161.155-.034 2.912-.025 5.552.027 7.92.088 4.048 5.048 6.04 7.534 2.794ZM84.816 7.25h-2.964a.143.143 0 0 0-.143.142v11.942c0 .079.064.143.143.143h2.964a.143.143 0 0 0 .143-.143V7.392a.143.143 0 0 0-.143-.143Z"/></g><defs><clipPath id="a"><path fill="#fff" d="M.807.001h110.386v22H.807z"/></clipPath></defs></svg>
